editor/icons/ProxyTexture.svg

<svg height="16" viewBox="0 0 16 16" width="16" xmlns="http://www.w3.org/2000/svg"><path d="m1 1v4h4v-4zm6 0v2h6v8h-6v4h7a1 1 0 0 0 1-1v-12a1 1 0 0 0 -1-1zm2 4v1h-1v1h-1v3h1 2 2v-2h-1v-2h-1v-1zm-8 1v4h4v-4zm0 5v4h4v-4z" fill="#e0e0e0"/></svg>

<svg height="16" viewBox="0 0 16 16" width="16" xmlns="http://www.w3.org/2000/svg"><path d="M1 1v4h4V1zm6 0v2h6v8H7v4h7a1 1 0 0 0 1-1V2a1 1 0 0 0-1-1zm2 4v1H8v1H7v3h5V8h-1V6h-1V5zM1 6v4h4V6zm0 5v4h4v-4z" fill="#e0e0e0"/></svg>
